Images/skills-img-9.svg

<svg width="86" height="100" viewBox="0 0 86 100" fill="none" xmlns="http://www.w3.org/2000/svg">
<path d="M42.7386 99.8144C41.4113 99.8144 40.1725 99.4476 39.0222 98.8057L27.2536 91.5615C25.4839 90.5528 26.3688 90.186 26.8997 90.0026C29.2888 89.1774 29.7312 88.9939 32.2088 87.5268C32.4743 87.3434 32.8282 87.4351 33.0937 87.6185L42.1192 93.2121C42.4732 93.3955 42.9156 93.3955 43.1811 93.2121L78.4869 72.0296C78.8408 71.8462 79.0178 71.4794 79.0178 71.0209V28.7477C79.0178 28.2892 78.8408 27.9224 78.4869 27.739L43.1811 6.64818C42.8271 6.46479 42.3847 6.46479 42.1192 6.64818L6.8134 27.739C6.45946 27.9224 6.28249 28.3809 6.28249 28.7477V71.0209C6.28249 71.3877 6.45946 71.8462 6.8134 72.0296L16.4584 77.8067C21.679 80.5576 24.953 77.3482 24.953 74.1387V32.4156C24.953 31.8654 25.3954 31.3152 26.0148 31.3152H30.5276C31.0585 31.3152 31.5894 31.7737 31.5894 32.4156V74.1387C31.5894 81.3829 27.7845 85.6011 21.1481 85.6011C19.1129 85.6011 17.5202 85.6011 13.0074 83.3086L3.7164 77.8067C1.41577 76.4312 0 73.8636 0 71.1126V28.8394C0 26.0884 1.41577 23.5208 3.7164 22.1453L39.0222 0.96284C41.2344 -0.320947 44.2429 -0.320947 46.455 0.96284L81.7608 22.1453C84.0615 23.5208 85.4772 26.0884 85.4772 28.8394V71.1126C85.4772 73.8636 84.0615 76.4312 81.7608 77.8067L46.455 98.9892C45.3047 99.5393 43.9774 99.8144 42.7386 99.8144ZM53.6224 70.7458C38.1374 70.7458 34.9519 63.4099 34.9519 57.1744C34.9519 56.6242 35.3943 56.074 36.0137 56.074H40.615C41.1459 56.074 41.5883 56.4408 41.5883 56.991C42.2962 61.851 44.3314 64.2352 53.7109 64.2352C61.1437 64.2352 64.3291 62.4929 64.3291 58.3665C64.3291 55.9823 63.4443 54.24 51.8527 53.0479C42.2077 52.0392 36.1907 49.8384 36.1907 41.8606C36.1907 34.433 42.2077 30.0314 52.2951 30.0314C63.6213 30.0314 69.1959 34.0662 69.9037 42.8693C69.9037 43.1444 69.8153 43.4195 69.6383 43.6946C69.4613 43.878 69.1959 44.0614 68.9304 44.0614H64.3291C63.8867 44.0614 63.4443 43.6946 63.3558 43.2361C62.294 38.1927 59.5509 36.5421 52.2951 36.5421C44.1544 36.5421 43.1811 39.4765 43.1811 41.6772C43.1811 44.3365 44.3314 45.1618 55.3036 46.629C66.1873 48.0962 71.3195 50.2052 71.3195 58.0914C71.231 66.1609 64.8601 70.7458 53.6224 70.7458Z" fill="#539E43"/>
</svg>

<svg xmlns="http://www.w3.org/2000/svg" width="86" height="100" fill="none" xmlns:v="https://vecta.io/nano"><path d="M42.739 99.814c-1.327 0-2.566-.367-3.716-1.009l-11.769-7.244c-1.77-1.009-.885-1.375-.354-1.559 2.389-.825 2.832-1.009 5.309-2.476.266-.183.619-.092.885.092l9.026 5.594c.354.183.796.183 1.062 0L78.487 72.03c.354-.183.531-.55.531-1.009V28.748c0-.458-.177-.825-.531-1.009L43.181 6.648c-.354-.183-.796-.183-1.062 0L6.813 27.739c-.354.183-.531.642-.531 1.009v42.273c0 .367.177.825.531 1.009l9.645 5.777c5.221 2.751 8.495-.459 8.495-3.668V32.416c0-.55.442-1.1 1.062-1.1h4.513c.531 0 1.062.459 1.062 1.1v41.723c0 7.244-3.805 11.462-10.441 11.462-2.035 0-3.628 0-8.141-2.293l-9.291-5.502C1.416 76.431 0 73.864 0 71.113V28.839c0-2.751 1.416-5.319 3.716-6.694L39.022.963c2.212-1.284 5.221-1.284 7.433 0l35.306 21.182c2.301 1.376 3.716 3.943 3.716 6.694v42.273c0 2.751-1.416 5.319-3.716 6.694L46.455 98.989a8.79 8.79 0 0 1-3.716.825zm10.884-29.069c-15.485 0-18.67-7.336-18.67-13.571 0-.55.442-1.1 1.062-1.1h4.601c.531 0 .973.367.973.917.708 4.86 2.743 7.244 12.123 7.244 7.433 0 10.618-1.742 10.618-5.869 0-2.384-.885-4.126-12.476-5.319-9.645-1.009-15.662-3.209-15.662-11.187 0-7.428 6.017-11.829 16.104-11.829 11.326 0 16.901 4.035 17.609 12.838 0 .275-.088.55-.265.825-.177.183-.442.367-.708.367h-4.601c-.442 0-.885-.367-.973-.825-1.062-5.043-3.805-6.694-11.061-6.694-8.141 0-9.114 2.934-9.114 5.135 0 2.659 1.15 3.485 12.123 4.952 10.884 1.467 16.016 3.576 16.016 11.462-.089 8.069-6.459 12.654-17.697 12.654z" fill="#539e43"/></svg>
